src/stone-cut-marquise.svg

<svg xmlns="http://www.w3.org/2000/svg" class="dibsvg-svg dibsvg-stone-cut-marquise" viewBox="0 0 250 250">
    <path d="M187.9 64.6C167.1 23.9 131.5 2.5 126.6-.3l-.2-.3s-.1.1-.2.1-.1-.1-.2-.1l-.1.3c-4.8 2.7-41.5 24.1-62.4 65C47.8 95.3 40.2 144 66 188.5c10.9 18.8 28.1 36.3 59.3 60.3l.3.4.1-.1.1.1.3-.4c3.2-2.4 6.2-4.8 9.1-7.1 25.5-20.4 40.4-36.3 50.2-53.2 25.8-44.5 18.2-93.2 2.5-123.9zm-39.2 139.2l1.1-23.4v-.1l12.8-14 7.4 29.1c-3 4-6.4 7.9-10.2 12l-11.1-3.6zm-25.6 31.9l-9.9-24.9 15.1-4.3 9.9 3.3-10.4 26.3c-.7.5-1.4 1.1-2 1.6-1-.6-1.8-1.3-2.7-2zM81.4 103.5l5.4 22.7 1.4 5-4.4 17.2-22.2-23.2 19.8-21.7zM126.2 10c.8.5 1.7 1.1 2.7 1.8l5.3 21.5-9.6 6.8-7.7-5.5 6.9-23.1c.9-.5 1.7-1 2.4-1.5zm33.6 98.9l-2.5-18.3 5.4 5.9-2.9 12.4zm-23.2-66.2L141 58l-9.3-11.8 4.9-3.5zm3.7-22.2c1.8 1.5 3.6 3 5.5 4.8l-3.7 2.6-1.8-7.4zm-31.2 8.7l-4.2-3c2.4-2.1 4.7-4.1 6.8-5.8l-2.6 8.8zm9.4 17.6l-8 10.2 3.8-13.2 4.2 3zm-8.1 24.7l14.9-18.9 16.5 20.9 4.8 5.3 7.1 52.3.2.9-12.2 44-15.5 19.6-14.5-16.6-1.3-1.5-12.9-46.4 7.2-53.2 5.7-6.4zm1.2 130.4l-.3-9.9 7 8-6.7 1.9zM93 148.7l3.9 13.9-5.8-6.4 1.9-7.5zm-1.4-41.2l-2.8-12 5.3-5.8-2.5 17.8zm-3.2 59.3l13.4 14.8.8 22.9-10.9 3.1c-4-4.2-7.4-8.3-10.5-12.4l7.2-28.4zm16.1 46.5l4.1 10.3c-3.5-3-6.7-5.9-9.6-8.8l5.5-1.5zm30.3-14.1l5.4-6.9-.4 8.5-5-1.6zm20.4-38.1l3.2-11.4 1.6 6.2-4.8 5.2zm8.1-28.9l1.6-5.8 5.2-21.8 18.3 20.1-21.1 23.2-4-15.7zm29.7-15.7l-20.5-22.6 2.8-33.5c1.6 2.7 3.2 5.4 4.6 8.3 6.7 13.1 11.8 29.7 13.1 47.8zm-25.8-68l-3.1 36.2-9-9.9-10.7-37.4-.1-.3 8-5.7c5.1 5.1 10.1 10.7 14.9 17.1zM98.3 32.6l8.2 5.8-10.2 35.3-8.9 9.8-3-35.2c4.5-5.8 9.2-11.1 13.9-15.7zM71.5 68.7c1.5-3 3.2-5.9 4.9-8.6l2.8 32.5-20.6 22.6C60 97.6 65 81.5 71.5 68.7zm-13 66.4l22.6 23.7-6.7 26.4c-.2-.4-.5-.8-.7-1.2-9.2-16.1-13.9-32.8-15.2-48.9zm88.2 77.5l6 2c-3.2 3.1-6.7 6.3-10.6 9.6l4.6-11.6zm30.9-28.6l-.9 1.5-6.9-27.1 23.2-25.5c-1 16.7-5.6 34.2-15.4 51.1z"/>
</svg>

<svg xmlns="http://www.w3.org/2000/svg" class="dibsvg-svg dibsvg-stone-cut-marquise" viewBox="0 0 250 250">
    <path d="M187.9,64.6c-20.8-40.7-56.4-62.1-61.3-64.9l-0.2-0.3c0,0-0.1,0.1-0.2,0.1c-0.1,0-0.1-0.1-0.2-0.1l-0.1,0.3 c-4.8,2.7-41.5,24.1-62.4,65C47.8,95.3,40.2,144,66,188.5c10.9,18.8,28.1,36.3,59.3,60.3l0.3,0.4c0,0,0.1-0.1,0.1-0.1 c0,0,0.1,0.1,0.1,0.1l0.3-0.4c3.2-2.4,6.2-4.8,9.1-7.1l0,0l0,0c25.5-20.4,40.4-36.3,50.2-53.2C211.2,144,203.6,95.3,187.9,64.6z M148.7,203.8l1.1-23.4l0-0.1l12.8-14l7.4,29.1c-3,4-6.4,7.9-10.2,12L148.7,203.8z M123.1,235.7l-9.9-24.9l15.1-4.3l9.9,3.3 l-10.4,26.3c-0.7,0.5-1.4,1.1-2,1.6C124.8,237.1,124,236.4,123.1,235.7z M81.4,103.5l5.4,22.7l1.4,5l-4.4,17.2l-22.2-23.2 L81.4,103.5z M126.2,10c0.8,0.5,1.7,1.1,2.7,1.8l5.3,21.5l-9.6,6.8l-7.7-5.5l6.9-23.1C124.7,11,125.5,10.5,126.2,10z M159.8,108.9 l-2.5-18.3l5.4,5.9L159.8,108.9z M136.6,42.7L141,58l-9.3-11.8L136.6,42.7z M140.3,20.5c1.8,1.5,3.6,3,5.5,4.8l-3.7,2.6L140.3,20.5z M109.1,29.2l-4.2-3c2.4-2.1,4.7-4.1,6.8-5.8L109.1,29.2z M118.5,46.8l-8,10.2l3.8-13.2L118.5,46.8z M110.4,71.5l14.9-18.9 l16.5,20.9l4.8,5.3l7.1,52.3l0.2,0.9L141.7,176l-15.5,19.6L111.7,179l-1.3-1.5l-12.9-46.4l7.2-53.2L110.4,71.5z M111.6,201.9 l-0.3-9.9l7,8L111.6,201.9z M93,148.7l3.9,13.9l-5.8-6.4L93,148.7z M91.6,107.5l-2.8-12l5.3-5.8L91.6,107.5z M88.4,166.8l13.4,14.8 l0.8,22.9l-10.9,3.1c-4-4.2-7.4-8.3-10.5-12.4L88.4,166.8z M104.5,213.3l4.1,10.3c-3.5-3-6.7-5.9-9.6-8.8L104.5,213.3z M134.8,199.2 l5.4-6.9l-0.4,8.5L134.8,199.2z M155.2,161.1l3.2-11.4l1.6,6.2L155.2,161.1z M163.3,132.2l1.6-5.8l5.2-21.8l18.3,20.1l-21.1,23.2 L163.3,132.2z M193,116.5l-20.5-22.6l2.8-33.5c1.6,2.7,3.2,5.4,4.6,8.3C186.6,81.8,191.7,98.4,193,116.5z M167.2,48.5l-3.1,36.2 l-9-9.9l-10.7-37.4l-0.1-0.3l8-5.7C157.4,36.5,162.4,42.1,167.2,48.5z M98.3,32.6l8.2,5.8L96.3,73.7l-8.9,9.8l-3-35.2 C88.9,42.5,93.6,37.2,98.3,32.6z M71.5,68.7c1.5-3,3.2-5.9,4.9-8.6l2.8,32.5l-20.6,22.6C60,97.6,65,81.5,71.5,68.7z M58.5,135.1 l22.6,23.7l-6.7,26.4c-0.2-0.4-0.5-0.8-0.7-1.2C64.5,167.9,59.8,151.2,58.5,135.1z M146.7,212.6l6,2c-3.2,3.1-6.7,6.3-10.6,9.6 L146.7,212.6z M177.6,184c-0.3,0.5-0.6,1-0.9,1.5l-6.9-27.1l23.2-25.5C192,149.6,187.4,167.1,177.6,184z"/>
</svg>
